packages/foundations/assets/icons/functional/images/business & payment/shopping_bag_20_filled.svg

<svg width="20" height="20" viewBox="0 0 20 20" fill="none" xmlns="http://www.w3.org/2000/svg">
<g clip-path="url(#clip0_2202_1467)">
<path fill-rule="evenodd" clip-rule="evenodd" d="M10.0003 2C12.0003 2 14.0003 3.5 14.0003 6H15.4073C15.6624 5.9983 15.9085 6.0947 16.0946 6.26927C16.2807 6.44384 16.3927 6.68325 16.4073 6.938L17.0003 16.938C17.0057 17.0737 16.9841 17.2092 16.9366 17.3365C16.889 17.4637 16.8166 17.5802 16.7234 17.6791C16.6303 17.778 16.5184 17.8574 16.3942 17.9125C16.27 17.9676 16.1361 17.9973 16.0003 18H4.00027C3.43827 18 2.97027 17.5 3.00027 16.937L3.59427 6.937C3.60913 6.68242 3.72116 6.44327 3.90725 6.26891C4.09333 6.09454 4.33926 5.99829 4.59427 6H6.00027C6.00027 3.5 7.84427 2 10.0003 2ZM8.00027 9H6.00027V9.688C6.00027 12.344 7.81327 14 10.0003 14C12.1883 14 14.0003 12.344 14.0003 9.687V9H12.0003V9.344C12.0003 10.625 11.5943 12 10.0003 12C8.40727 12 8.00027 10.625 8.00027 9.344V9ZM10.0003 4C9.00027 4 8.00027 4.594 8.00027 6H12.0003C12.0003 4.594 11.0003 4 10.0003 4Z" fill="#1A1C1F"/>
</g>
<defs>
<clipPath id="clip0_2202_1467">
<rect width="20" height="20" fill="white"/>
</clipPath>
</defs>
</svg>

<svg xmlns="http://www.w3.org/2000/svg" width="20" height="20" fill="none"><g clip-path="url(#a)"><path fill="#1A1C1F" fill-rule="evenodd" d="M10 2c2 0 4 1.5 4 4h1.407a.995.995 0 0 1 1 .938l.593 10A1.024 1.024 0 0 1 16 18H4c-.562 0-1.03-.5-1-1.063l.594-10a.995.995 0 0 1 1-.937H6c0-2.5 1.844-4 4-4M8 9H6v.688C6 12.344 7.813 14 10 14s4-1.656 4-4.313V9h-2v.344C12 10.625 11.594 12 10 12s-2-1.375-2-2.656zm2-5c-1 0-2 .594-2 2h4c0-1.406-1-2-2-2" clip-rule="evenodd"/></g><defs><clipPath id="a"><path fill="#fff" d="M0 0h20v20H0z"/></clipPath></defs></svg>
